src/symbolic/actions/format-text-remove-formatting-symbolic.svg

<svg xmlns="http://www.w3.org/2000/svg" width="16" height="16" version="1.1">
 <path style="fill:#444444" d="M 2.5,1 15,13.5 13.5,15 1,2.5 Z"/>
 <path style="fill:#444444" d="M 6.5,3 8.5,5 H 10 C 10.43,5 11,5.61 11,6 V 7 H 10.5 L 13,9.5 V 6 C 13,4.37 11.68,3 10,3 Z"/>
 <path style="fill:#444444" d="M 6,7 C 5.08,7 4.26,7.3807 3.75,7.9707 3.24,8.5507 3,9.28 3,10 3,10.72 3.2693,11.449 3.7793,12.029 4.2893,12.609 5.09,13 6,13 H 13 V 12.5 L 11,10.5 V 11 H 6 C 5.6,11 5.4293,10.891 5.2793,10.721 5.1293,10.551 5,10.28 5,10 5,9.72 5.1,9.4493 5.25,9.2793 5.4,9.1193 5.58,9 6,9 H 9.5 L 7.5,7 Z"/>
</svg>

<svg xmlns="http://www.w3.org/2000/svg" width="16" height="16"><path d="M2.5 1L15 13.5 13.5 15 1 2.5zM6.5 3l2 2H10c.43 0 1 .61 1 1v1h-.5L13 9.5V6c0-1.63-1.32-3-3-3z" fill="#5d656b"/><path d="M6 7c-.92 0-1.74.38-2.25.97A3.06 3.06 0 0 0 3 10c0 .72.27 1.449.78 2.029.51.58 1.31.971 2.22.971h7v-.5l-2-2v.5H6c-.4 0-.57-.109-.72-.279A1.14 1.14 0 0 1 5 10c0-.28.1-.55.25-.72C5.4 9.12 5.58 9 6 9h3.5l-2-2z" fill="#5d656b"/></svg>
